lib/svg/comment-discussion.svg

<svg xmlns="http://www.w3.org/2000/svg" width="16" height="16" viewBox="0 0 16 16"><path d="M15 1H6c-.55 0-1 .45-1 1v2H1c-.55 0-1 .45-1 1v6c0 .55.45 1 1 1h1v3l3-3h4c.55 0 1-.45 1-1V9h1l3 3V9h1c.55 0 1-.45 1-1V2c0-.55-.45-1-1-1zM9 11H4.5L3 12.5V11H1V5h4v3c0 .55.45 1 1 1h3v2zm6-3h-2v1.5L11.5 8H6V2h9v6z"/></svg>

<?xml version="1.0" encoding="UTF-8" standalone="no"?>
<svg width="16px" height="16px" viewBox="0 0 16 16" version="1.1" xmlns="http://www.w3.org/2000/svg" xmlns:xlink="http://www.w3.org/1999/xlink">
    <!-- Generator: Sketch 3.8.3 (29802) - http://www.bohemiancoding.com/sketch -->
    <title>comment-discussion</title>
    <desc>Created with Sketch.</desc>
    <defs></defs>
    <g id="Octicons" stroke="none" stroke-width="1" fill="none" fill-rule="evenodd">
        <g id="comment-discussion" fill="#000000">
            <path d="M15,1 L6,1 C5.45,1 5,1.45 5,2 L5,4 L1,4 C0.45,4 0,4.45 0,5 L0,11 C0,11.55 0.45,12 1,12 L2,12 L2,15 L5,12 L9,12 C9.55,12 10,11.55 10,11 L10,9 L11,9 L14,12 L14,9 L15,9 C15.55,9 16,8.55 16,8 L16,2 C16,1.45 15.55,1 15,1 L15,1 Z M9,11 L4.5,11 L3,12.5 L3,11 L1,11 L1,5 L5,5 L5,8 C5,8.55 5.45,9 6,9 L9,9 L9,11 L9,11 Z M15,8 L13,8 L13,9.5 L11.5,8 L6,8 L6,2 L15,2 L15,8 L15,8 Z" id="Shape"></path>
        </g>
    </g>
</svg>
